src/assets/benefits/icon-4.svg

<svg width="48" height="48" viewBox="0 0 48 48" fill="none" xmlns="http://www.w3.org/2000/svg">
<rect width="48" height="48" rx="12" fill="#FF776F"/>
<path fill-rule="evenodd" clip-rule="evenodd" d="M31 29.5C31 28.6716 30.3284 28 29.5 28H20C17.2386 28 15 25.7614 15 23C15 20.2386 17.2386 18 20 18H23V20H20C18.3432 20 17 21.3432 17 23C17 24.6569 18.3432 26 20 26H29.5C31.433 26 33 27.567 33 29.5C33 31.433 31.433 33 29.5 33H16C15.4477 33 15 32.5523 15 32C15 31.4477 15.4477 31 16 31H29.5C30.3284 31 31 30.3284 31 29.5Z" fill="#0E0C15"/>
<path d="M32 16H28V18H32C32.5523 18 33 17.5523 33 17C33 16.4477 32.5523 16 32 16Z" fill="#0E0C15"/>
<path d="M32 20H28V22H32C32.5523 22 33 21.5523 33 21C33 20.4477 32.5523 20 32 20Z" fill="#0E0C15"/>
<path d="M21 19C21 16.7909 22.7909 15 25 15H29C29.5523 15 30 15.4477 30 16V22C30 22.5523 29.5523 23 29 23H25C22.7909 23 21 21.2091 21 19Z" fill="#0E0C15"/>
</svg>

<svg width="48" height="48" fill="none" xmlns="http://www.w3.org/2000/svg"><rect width="48" height="48" rx="12" fill="#FF776F"/><path fill-rule="evenodd" clip-rule="evenodd" d="M31 29.5a1.5 1.5 0 0 0-1.5-1.5H20a5 5 0 0 1 0-10h3v2h-3a3 3 0 0 0 0 6h9.5a3.5 3.5 0 1 1 0 7H16a1 1 0 1 1 0-2h13.5a1.5 1.5 0 0 0 1.5-1.5Z" fill="#0E0C15"/><path d="M32 16h-4v2h4a1 1 0 1 0 0-2ZM32 20h-4v2h4a1 1 0 1 0 0-2Z" fill="#0E0C15"/><path d="M21 19a4 4 0 0 1 4-4h4a1 1 0 0 1 1 1v6a1 1 0 0 1-1 1h-4a4 4 0 0 1-4-4Z" fill="#0E0C15"/></svg>
